X:1
T:Dew of Mercy
T:Dew of Mercy
T:William Howard Doane
T:Frances Jane (Fanny) Crosby, 1873
T:Public Domain Courtesy of the Cyber Hymnal™
T:Public Domain Courtesy of the Cyber Hymnal™
C:William Howard Doane
Z:Public Domain
Z:Courtesy of the Cyber Hymnal™
%%score ( 1 2 ) ( 3 4 )
L:1/8
Q:1/4=100
M:4/4
K:Ab
V:1 treble 
V:2 treble 
V:3 bass 
V:4 bass 
V:1
 [Ec]>[=D=B] | [Ec]2 [CE][DF] [CE]2 [CA][DB] | [Ec][DB][CA][DB] [Ec]2 [Ec]>[Ed] | %3
w: 1.~Like the|still qu- iet fall of the|si- lent dew of night On the|
w: 2.~How it|cheers and re- vives ev- ery|bud of Christ- ian hope! How it|
w: 3.~When we|ask of the Lord, in our|sim- ple fer- vent prayer, For His|
 [Ee]2 [EA][EB] [Ec]2 [EB][=DA] | [EB]6 [Ec]>[=D=B] | [Ec]2 [CE]>[DF] [CE]2 [CA][DB] | %6
w: leaves, that are fold- ed to|rest, Is the|mer- cy of God when it|
w: takes ev- ery sor- row a-|way! O ’tis|sweet- er by far than the|
w: bless- ing at morn and at|even, Let us|pray that our souls may be|
 [Ec][DB][CA][DB] [Ec]2 [Ec][Ec] | [EB]2 [EB][Ge] [F=d]2 [Ec][Fd] | [Ge]6 ||"^Refrain" EE | %10
w: drop- peth from His throne, Bring- ing|balm from the fields of the|blest.||
w: drops of na- ture’s dew, And it|fall- eth by night and by|day.|Dew of|
w: wa- tered and re- freshed, By the|dew of His mer- cy from|Heav’n.||
 [Ed]4 [GB]2 EE | [Ee]4 [Ac]2 [Ec][EB] | [EA][EA][Ec][EB] [EA][EA][GB][Ac] | [GB]6 [Ec][Ed] | %14
w: ||||
w: mer- cy, dew of|mer- cy, Ev- er|drop- ping, gent- ly drop- ping from a-|bove; Dew of|
w: ||||
 [Ae]4 [_GA]2 [GB][Gc] | [Fd]4 !fermata![DF]2 [Fc][FB] | [EA][CE][Ec][DB] [EA]2 [EG]2 | [EA]4 |] %18
w: ||||
w: mer- cy, how it|cheers us, Ev- er|drop- ping from a Sav- ior’s|love!|
w: ||||
V:2
 x2 | x8 | x8 | x8 | x8 | x8 | x8 | x8 | x6 || EE | x6 EE | x8 | x8 | x8 | x8 | x8 | x8 | x4 |] %18
V:3
 [A,,A,]>[A,,A,] | [A,,A,]2 [A,,A,][A,,A,] [A,,A,]2 [A,,A,][A,,A,] | %2
w: ~ ~|~ ~ ~ ~ ~ ~|
 [A,,A,][A,,A,][A,,A,][E,G,] A,2 A,>[A,B,] | [A,C]2 [C,A,][E,G,] A,2 [G,B,][F,B,] | %4
w: ~ ~ ~ ~ ~ ~ ~|~ ~ ~ ~ ~ ~|
 [E,G,]6 [A,,A,]>[A,,A,] | [A,,A,]2 [A,,A,]>[A,,A,] [A,,A,]2 [A,,A,][A,,A,] | %6
w: ~ ~ ~|~ ~ ~ ~ ~ ~|
 [A,,A,][A,,A,][A,,A,][E,G,] A,2 [A,,A,][A,,A,] | [B,,G,]2 [B,,G,][B,,B,] [B,,B,]2 [B,,B,][B,,B,] | %8
w: ~ ~ ~ ~ ~ ~ ~|~ ~ ~ ~ ~ ~|
 [E,B,]6 || [E,G,][E,G,] | [E,B,][E,B,][E,G,][E,B,] [E,E][E,E][E,B,][E,D] | %11
w: ~|Dew of|mer- cy ev- er fall- ing, Dew of|
 [A,C][A,C][A,C][A,C] [A,E][A,E][A,E][E,D] | [A,,C][C,A,]A,[E,D] [A,,C][C,E][E,E][A,E] | %13
w: mer- cy ev- er fall- ing, ~ ~|~ ~ ~ ~ ~ ~ ~ ~|
 [E,E]6 A,[A,B,] | [A,C][A,C][A,C][A,C] [A,C][A,C][A,D][A,E] | %15
w: ~ Dew of|mer- cy ev- er fall- ing, How it|
 [D,D][D,D][D,A,][D,A,] !fermata![D,A,]2 [D,E][D,D] | [E,C][E,A,][E,A,][E,D] [E,C]2 (B,D) | %17
w: sweet- ly cheer- eth us! * *||
 [A,,C]4 |] %18
w: |
V:4
 x2 | x8 | x4 A,2 A,3/2 x/ | x4 A,2 x2 | x8 | x8 | x4 A,2 x2 | x8 | x6 || x2 | x8 | x8 | x2 A, x5 | %13
 x6 A, x | x8 | x8 | x6 E,2 | x4 |] %18

